!! Isochronous pitch passage.
!! Solo-line.
!! From Shostakovich, Preludes & Fugues, Opus 87, Prelude No. 2, measure 1ff.
!! Piano
!! 4/4 meter
**kern	**metpos
*M4/4	*M4/4
*tb16	*tb16
=1	=1
16r	1
16ee	5
16cc	4
16a	5
16e	3
16c	5
16B	4
16c	5
16A	2
16ee	5
16cc	4
16aa	5
16e	3
16c	5
16B	4
16c	5
=2	=2
16A	1
16dd	5
16b	4
16g	5
16e	3
16d	5
16c	4
16d	5
16B	2
16dd	5
16b	4
16g	5
16e	3
16d	5
16c	4
16d	5
=3	=3
16B	1
16cc	5
16a	4
16g	5
16f	3
16e	5
16d	4
16e	5
16c	2
16cc	5
16a	4
16g	5
16f	3
16e	5
16d	4
16e	5
=4	=4
16A	1
16b	5
16a	4
16g	5
16f	3
16d	5
16c	4
16d	5
16A	2
16b	5
16a	4
16g	5
16f	3
16d	5
16c	4
16d	5
=5	=5
16A	1
16b	5
16a	4
16e	5
16d	3
16c	5
16B	4
16c	5
16G	2
16b	5
16a	4
16e	5
16d	3
16c	5
16B	4
16c	5
=6	=6
16G	1
16b	5
16a	4
16g	5
16d	3
16A	5
16G	4
16A	5
16F	2
16b	5
16a	4
16g	5
16d	3
16A	5
16G	4
16A	5
=7	=7
16F	1
16cc	5
16b	4
16g#	5
16e	3
16d	5
16c	4
16B	5
16A	2
16G#	5
16F#	4
16G#	5
16E	3
16cc	5
16b	4
16g#	5
=8	=8
16e	1
16d	5
16c	4
16B	5
16A	3
16G#	5
16F#	4
16G#	5
16E	2
16F#	5
16G#	4
16B	5
16e	3
16f#	5
16g#	4
16a	5
=9	=9
*-	*-
